X: 1
T:Quadriglia
C:Y. Dour: Accordéons diatoniques
M:6/8
L:1/8
K:G
B|BAd d2B|BAG D2B|BAG FAF|EFE D2B|\
BAd d2B|BAG D2B|BAG FAF|E2F G3||
|:+B2d2+ +Bd+ +B2d2+ +Bd+| +Bd++Ac++GB+ +F2A2+ +FA+|\
+c2e2+ +ce+ +c2e2+ +ce+|+ce+BA +G3B3+:|\
|:GAB BAB|BAB B2B|GAB BAB|B2d c3|
|1 ABc cBc|cBc c2c|ABc fed|\
cBA B3:|2 cde ede|fed dcd|ede fed|cBA G3||
|:D2D GDG|BGB dBd|geg fed|1 cBA B2G:|2 cBA G3||
